Gurmukhi/0A69.svg

<svg enable-background="new 0 0 336 592" viewBox="0 0 336 592" xmlns="http://www.w3.org/2000/svg"><path d="m118.80397 218.064819c-3.82666-12.962677-6.294685-10.832138 7.047142-15.50235 23.653389-8.279663 47.756768-10.880081 71.691155-1.081039 28.35936 11.610703 40.44844 38.048813 34.718185 63.906601-2.242141 10.117645-8.24768 18.063507-16.231094 24.545441-1.406418 1.141906-2.816315 2.279541-4.746857 3.841827 18.334 10.86911 30.353729 25.523163 28.97786 47.654755-1.444748 23.239563-17.813721 33.442352-37.173584 40.471191.245987 2.460083 2.228622 3.075775 3.546829 4.192749 9.298035 7.878327 17.899033 16.450562 26.042129 25.513245 2.157639 2.401306 2.126694 3.864227-.310867 6.107055-9.210342 8.47461-9.100052 8.529877-17.782211-.300537-10.296936-10.4729-21.120026-20.332794-33.373779-28.532653-2.328675-1.558259-4.538727-2.080597-7.430024-1.851136-14.26593 1.132355-28.3237.002198-41.592544-5.865936-6.677689-2.953217-12.909455-6.842804-14.335427-14.800964-1.823272-10.175415 6.176011-18.164917 18.471322-18.629883 13.410446-.507141 25.859191 3.610016 37.041198 10.300751 7.194245 4.304687 13.422745 4.318603 20.551285 1.400329 5.778031-2.365295 11.06221-5.395141 15.374725-9.984314 8.445923-8.987732 9.530396-21.906219 2.704285-32.174408-3.980575-5.987793-9.347992-10.319122-15.747391-13.49527-2.510192-1.245849-4.879501-1.41333-7.67601-.726623-14.841903 3.64447-29.884186 4.98407-45.006943 2.171417-7.617782-1.416778-15.10733-3.640869-17.970672-12.262421-1.935616-5.828155-.151779-11.453918 4.800827-15.039337 4.739929-3.431457 10.245514-4.838745 15.945297-5.177398 12.237015-.727082 24.296921.48471 35.89856 4.635498 3.399154 1.216125 6.383819 1.031189 9.559326-.469361 8.883743-4.197967 16.352905-9.94992 19.602783-19.564361 4.802765-14.208634-2.15712-27.503571-16.838516-33.164109-12.563019-4.843826-25.461914-4.32373-38.426346-2.470535-9.752823 1.394119-19.23201 3.944687-28.347588 7.683396-3.380836 1.386627-5.343498.847366-6.283783-2.870453-.692092-2.736481-1.707839-5.391098-2.699272-8.461167z"/></svg>

<svg version="1.1" id="Layer_1" xmlns="http://www.w3.org/2000/svg" xmlns:xlink="http://www.w3.org/1999/xlink" x="0px" y="0px"
	 width="100%" viewBox="0 0 336 592" enable-background="new 0 0 336 592" xml:space="preserve">
<path fill="#000000" opacity="1.000000" stroke="none" 
	d="
M118.803970,218.064819 
	C114.977310,205.102142 112.509285,207.232681 125.851112,202.562469 
	C149.504501,194.282806 173.607880,191.682388 197.542267,201.481430 
	C225.901627,213.092133 237.990707,239.530243 232.260452,265.388031 
	C230.018311,275.505676 224.012772,283.451538 216.029358,289.933472 
	C214.622940,291.075378 213.213043,292.213013 211.282501,293.775299 
	C229.616501,304.644409 241.636230,319.298462 240.260361,341.430054 
	C238.815613,364.669617 222.446640,374.872406 203.086777,381.901245 
	C203.332764,384.361328 205.315399,384.977020 206.633606,386.093994 
	C215.931641,393.972321 224.532639,402.544556 232.675735,411.607239 
	C234.833374,414.008545 234.802429,415.471466 232.364868,417.714294 
	C223.154526,426.188904 223.264816,426.244171 214.582657,417.413757 
	C204.285721,406.940857 193.462631,397.080963 181.208878,388.881104 
	C178.880203,387.322845 176.670151,386.800507 173.778854,387.029968 
	C159.512924,388.162323 145.455154,387.032166 132.186310,381.164032 
	C125.508621,378.210815 119.276855,374.321228 117.850883,366.363068 
	C116.027611,356.187653 124.026894,348.198151 136.322205,347.733185 
	C149.732651,347.226044 162.181396,351.343201 173.363403,358.033936 
	C180.557648,362.338623 186.786148,362.352539 193.914688,359.434265 
	C199.692719,357.068970 204.976898,354.039124 209.289413,349.449951 
	C217.735336,340.462219 218.819809,327.543732 211.993698,317.275543 
	C208.013123,311.287750 202.645706,306.956421 196.246307,303.780273 
	C193.736115,302.534424 191.366806,302.366943 188.570297,303.053650 
	C173.728394,306.698120 158.686111,308.037720 143.563354,305.225067 
	C135.945572,303.808289 128.456024,301.584198 125.592682,292.962646 
	C123.657066,287.134491 125.440903,281.508728 130.393509,277.923309 
	C135.133438,274.491852 140.639023,273.084564 146.338806,272.745911 
	C158.575821,272.018829 170.635727,273.230621 182.237366,277.381409 
	C185.636520,278.597534 188.621185,278.412598 191.796692,276.912048 
	C200.680435,272.714081 208.149597,266.962128 211.399475,257.347687 
	C216.202240,243.139053 209.242355,229.844116 194.560959,224.183578 
	C181.997940,219.339752 169.099045,219.859848 156.134613,221.713043 
	C146.381790,223.107162 136.902603,225.657730 127.787025,229.396439 
	C124.406189,230.783066 122.443527,230.243805 121.503242,226.525986 
	C120.811150,223.789505 119.795403,221.134888 118.803970,218.064819 
z"/>
</svg>
